!!!!SEGMENT: pl-gd--ee-1638--006-013_marenzio-luca--il-quinto-libro-de-madrigalia-a-cinque-voci-per-la-dolce-cagion.krn
!!!cenid: 15xx:895
!!!COM: Marenzio, Luca
!!!COM-rismID: pe30003955
!!!CDT: ~1553-1599/08/22
!!!CNT: Italian
!!!GTL: Il Quinto libro de madrigalia a cinque voci
!!!OTL: Per la dolce cagion
!!!OMV: 013
!!!PDT: 1585
!!!AGN:
!!!SMS-siglum: PL-GD
!!!SMS-shelfmark: Ee 1638
!!!SMS-variant:
!!!SMS-altvar:
!!!SMS-shelfwork: 006-013 G
!!!NIFC-rismSourceID: 990039296
!!!NIFC-islandoraID: pl-gd:57883
!!!URL-pdf-islandora: https://repozytorium.nifc.pl/islandora/object/pl-gd%3A57883/datastream/PDF/view
!!!URL-scan: https://polish.musicsources.pl/pl/lokalizacje/galeria/klocki-introligatorskie/655 @EN{Scan on Polish Music Sources Website} @PL{Skany w portalu Dziedzictwo Muzyki Polskiej w otwartym dostępie}
!!!ONB-nifc:
!!!AIN: 1 alto 1 bass 1 soprn 1 tenor 1 vox
!!!key: a
**kern	**text	**kern	**text	**kern	**text	**kern	**text	**kern	**text
*part5	*part5	*part4	*part4	*part3	*part3	*part2	*part2	*part1	*part1
*staff5	*staff5	*staff4	*staff4	*staff3	*staff3	*staff2	*staff2	*staff1	*staff1
*I"BASSO	*	*I"TENORE 	*	*I"QVINTO 	*	*I"ALTO	*	*I"CANTO	*
*I'B	*	*I'T	*	*I'V	*	*I'A	*	*I'S	*
*ICvox	*	*ICvox	*	*ICvox	*	*ICvox	*	*ICvox	*
*Ibass	*	*Itenor	*	*Ivox	*	*Ialto	*	*Isoprn	*
*clefF4	*	*clefC4	*	*clefC3	*	*clefC3	*	*clefC1	*
*k[]	*	*k[]	*	*k[]	*	*k[]	*	*k[]	*
*a:	*	*a:	*	*a:	*	*a:	*	*a:	*
*M4/4	*	*M4/4	*	*M4/4	*	*M4/4	*	*M4/4	*
*met(C)	*	*met(C)	*	*met(C)	*	*met(C)	*	*met(C)	*
=1-	=1-	=1-	=1-	=1-	=1-	=1-	=1-	=1-	=1-
!LO:TX:a:t=Seconda parte.	!	!LO:TX:a:t=Seconda parte.	!	!LO:TX:a:t=Seconda parte.	!	!LO:TX:a:t=Seconda parte.	!	!LO:TX:a:t=Seconda parte.	!
1AA	PEr	1A	PEr	1c	PEr	1e	PEr	1a	PEr
=2-	=2-	=2-	=2-	=2-	=2-	=2-	=2-	=2-	=2-
2E\	la	2G#X/	la	2B/	la	2e\	la	2b\	la
2.E\	dol-	2.G#/	dol-	2.B/	dol-	2.e\	do'	2.b\	dol-
=3-	=3-	=3-	=3-	=3-	=3-	=3-	=3-	=3-	=3-
4E\	-ce	4G#yX/	-ce	4B/	-ce	4e\	ce	4b\	-ce
2E\	ca-	2G#/	ca-	2B/	ca-	2e\	ca-	2b\	ca-
=4-	=4-	=4-	=4-	=4-	=4-	=4-	=4-	=4-	=4-
2AA/	-gion	2A/	-gion	2e\	-gion	2c/	-gion	2cc\	-gion
1D\	del	1F/	del	1d\	del	1f\	del	1a\	del
=5-	=5-	=5-	=5-	=5-	=5-	=5-	=5-	=5-	=5-
2D/	lan-	2F/	lã(n)-	2A/	lan-	2d\	lãn-	2a\	lan-
=6-	=6-	=6-	=6-	=6-	=6-	=6-	=6-	=6-	=6-
1BB-X	-gu-	1D	-guir	1d	-gu-	1f	-gu-	1b-X	-guir
=7-	=7-	=7-	=7-	=7-	=7-	=7-	=7-	=7-	=7-
1GG	-ir	1D	mio	1d	-ir	1g	-ir	1b-yX	mio
=8-	=8-	=8-	=8-	=8-	=8-	=8-	=8-	=8-	=8-
2AA/	mio	2.A/	.	1c	mio	0e	mio	2g\	O
1A\	O	.	.	.	.	.	.	1cc\	del
.	.	8Gny/	.	.	.	.	.	.	.
.	.	8F/	.	.	.	.	.	.	.
=9-	=9-	=9-	=9-	=9-	=9-	=9-	=9-	=9-	=9-
.	.	1E	.	2r	.	.	.	.	.
4G\	del	.	.	1e\	O	.	.	4bny\	mo-
!LO:SIC:v:t=custos E	!	!	!	!	!	!	!	!LO:SIC:v:t=custos g	!
4F\	mo-	.	.	.	.	.	.	4a\	-rir
!LO:LB:g=original	!	!	!	!	!	!	!	!LO:LB:g=original	!
=10-	=10-	=10-	=10-	=10-	=10-	=10-	=10-	=10-	=10-
4E\	-rir	0r	.	.	.	1r	.	4g\	ſe
4F\	ſ	.	.	.	.	.	.	4a\	po-
4G\	po-	.	.	4d\	del	.	.	4b\	-trà
!	!	!	!	!LO:SIC:v:t=custos B	!	!	!	!	!
4A\	-trà	.	.	4c/	mo-	.	.	4cc\	tan-
!	!	!	!	!LO:LB:g=original	!	!	!	!	!
=11-	=11-	=11-	=11-	=11-	=11-	=11-	=11-	=11-	=11-
4G\	ten-	.	.	4B/	-rir	2r	.	4dd\	-t'
4C/	-t'il	.	.	4c/	ſe	.	.	4cc\	il
2G\	du-	.	.	4d\	po-	1g\	O	2b-X\	du-
.	.	.	.	4e\	-tra	.	.	.	.
=12-	=12-	=12-	=12-	=12-	=12-	=12-	=12-	=12-	=12-
2G\	-olo	1.d	O	4d\	tan-	.	.	1b-yX	-olo
.	.	.	.	4G/	-t'il	.	.	.	.
1B-X\	o	.	.	4d\	duo-	4f\	del	.	.
!	!	!	!	!	!	!LO:SIC:v:t=custos d	!	!	!
.	.	.	.	4e\	.	4e\	mo-	.	.
!	!	!	!	!	!	!LO:LB:g=original	!	!	!
=13-	=13-	=13-	=13-	=13-	=13-	=13-	=13-	=13-	=13-
.	.	.	.	4f\	.	4d\	-rir	2r	.
.	.	.	.	4g\	.	4e\	ſ	.	.
4A\	del	4c\	del	2a\	.	4f\	po-	1f/	O
!	!	!LO:SIC:v:t=custos A	!	!	!	!	!	!	!
4G\	mo-	4B\	mi-	.	.	4g\	-trà	.	.
!	!	!LO:LB:g=original	!	!	!	!	!	!	!
=14-	=14-	=14-	=14-	=14-	=14-	=14-	=14-	=14-	=14-
4F\	-rir	4A/	-rir	2a\	-lo	2.a\	tan-	.	.
4G\	ſe	4B\	ſe	.	.	.	.	.	.
4A\	po-	4c\	po-	2r	.	.	.	4e/	del
4B-X\	-trà	4d\	-trà	.	.	4g\	-t'il	4d/	me-
=15-	=15-	=15-	=15-	=15-	=15-	=15-	=15-	=15-	=15-
4A\	tan-	4e\	tan-	4r	.	2a\	du-	4c/	-rir
4D/	-t'il	4f\	-t'il	4d\	ſe	.	.	4d/	ſe
2A\	du-	4e\	duo-	4c/	po-	2a\	-olo	4e/	po-
.	.	8d\	.	4A/	-trà	.	.	4f/	-trà
.	.	8c\	.	.	.	.	.	.	.
=16-	=16-	=16-	=16-	=16-	=16-	=16-	=16-	=16-	=16-
!LO:SIC:v:t=custos D	!	!	!	!	!	!	!	!	!
1G	-olo	4d\	.	4B/	tan-	1r	.	4g/	tan-
.	.	2c\	.	4c/	-t'il	.	.	4e/	-t' il
.	.	.	.	4.d\	duo-	.	.	2d/	du-
.	.	4B\	.	.	.	.	.	.	.
!	!	!	!	!LO:SIC:v:t=custos f	!	!	!	!	!
.	.	.	.	8e\	.	.	.	.	.
!LO:LB:g=original	!	!	!	!LO:LB:g=original	!	!	!	!	!
=17-	=17-	=17-	=17-	=17-	=17-	=17-	=17-	=17-	=17-
1D	Lã(n)-	4A/	.	4f\	.	2r	.	1d	-olo
.	.	4G/	.	2g\	.	.	.	.	.
.	.	2A/	.	.	.	2d\	Lã(n)-	.	.
.	.	.	.	4f#X\	.	.	.	.	.
=18-	=18-	=18-	=18-	=18-	=18-	=18-	=18-	=18-	=18-
2.C/	-guen	2c\	-lo	2g\	-lo	1.e	-gue-	2r	.
!	!	!	!	!	!	!	!	!LO:SIC:v:t=custos g#	!
.	.	2G/	Lã(n)-	2c/	Lã-	.	.	2g/	Lan-
4D/	.	.	.	.	.	.	.	.	.
!	!	!	!	!	!	!	!	!LO:LB:g=original	!
=19-	=19-	=19-	=19-	=19-	=19-	=19-	=19-	=19-	=19-
2E\	.	2E/	-gue-	2B/	-guen-	.	.	2g#X/	-gue-
2AA/	do	2E/	-ndo	2c/	-do	2e\	-do	2a\	-ndo
=20-	=20-	=20-	=20-	=20-	=20-	=20-	=20-	=20-	=20-
1GG#X	go-	1E	go-	1B	go-	1e	go-	1b#X	go-
=21-	=21-	=21-	=21-	=21-	=21-	=21-	=21-	=21-	=21-
2AA/	-do e	2E/	-do e	2e\	-do	2c#X/	-do	2a\	-do e
1D\	di	1F/	di	1A/	e	1d\	di	1a\	di
=22-	=22-	=22-	=22-	=22-	=22-	=22-	=22-	=22-	=22-
!	!	!LO:SIC:v:t=custos D	!	!	!	!	!	!	!
2GGny/	mo-	2D/	mo-	2B/	mo-	2d\	mo-	2gny/	mo-
!	!	!LO:LB:g=original	!	!	!	!	!	!	!
=23-	=23-	=23-	=23-	=23-	=23-	=23-	=23-	=23-	=23-
1GG	-rir	2D/	-rir	1G	-rir	2B/	-rir	2d/	-rir
.	.	4r	.	.	.	4r	.	4r	.
.	.	4G/	de-	.	.	4d\	de-	4dd\	de-
=24-	=24-	=24-	=24-	=24-	=24-	=24-	=24-	=24-	=24-
1r	.	4c\	-ſi-	0r	.	4e\	ſi-	4cc\	-ſi-
!	!	!	!	!	!	!LO:SIC:v:t=custos g	!	!	!
.	.	4d\	.	.	.	4f\	.	4bny\	.
!	!	!	!	!	!	!LO:LB:g=original	!	!	!
.	.	2e\	.	.	.	2.g\	.	4b\	.
.	.	.	.	.	.	.	.	8a\	.
.	.	.	.	.	.	.	.	8g\	.
=25-	=25-	=25-	=25-	=25-	=25-	=25-	=25-	=25-	=25-
2r	.	2.d\	.	.	.	.	.	1a	.
.	.	.	.	.	.	8f#X\	.	.	.
.	.	.	.	.	.	8e\	.	.	.
2D/	Pur	.	.	.	.	2f#X\	.	.	.
.	.	4c\	.	.	.	.	.	.	.
=26-	=26-	=26-	=26-	=26-	=26-	=26-	=26-	=26-	=26-
4E\	ch'el-	2B\	-o	2r	.	4g\	o	0g	-o
4F\	-la	.	.	.	.	8fny\	.	.	.
.	.	.	.	.	.	8e\	.	.	.
2.G\	non	4r	.	4r	.	4.d\	.	.	.
.	.	4B\	Pur	4d\	Pur	.	.	.	.
.	.	.	.	.	.	8cny/	.	.	.
=27-	=27-	=27-	=27-	=27-	=27-	=27-	=27-	=27-	=27-
.	.	4G/	ch'e-	4e\	ch'el-	1B	.	.	.
4F\	ſa-	4A/	-lla	4fny\	-la	.	.	.	.
4E\	-pen-	2B\	non	2.g\	non	.	.	.	.
8E\	-d'il	.	.	.	.	.	.	.	.
!LO:SIC:v:t=custos C	!	!	!	!	!	!	!	!	!
8D\	pia-	.	.	.	.	.	.	.	.
!LO:LB:g=original	!	!	!	!	!	!	!	!	!
=28-	=28-	=28-	=28-	=28-	=28-	=28-	=28-	=28-	=28-
2C/	-cer	2e\	ſa-	.	.	2r	.	2r	.
.	.	.	.	4f\	ſa-	.	.	.	.
2E\	Pur	4c\	-pen	4e\	-pen-	4r	.	2g/	Pur
.	.	8c\	d'il	8e\	-d'il	4g\	Pur	.	.
!	!	!	!	!LO:SIC:v:t=custos c	!	!	!	!	!
.	.	8B\	pia-	8d\	pia-	.	.	.	.
!	!	!	!	!LO:LB:g=original	!	!	!	!	!
=29-	=29-	=29-	=29-	=29-	=29-	=29-	=29-	=29-	=29-
4F\	ch'el-	1A	-cer	2c/	-cer	2f\	ch'el-	4a\	ch'el-
4G\	-la	.	.	.	.	.	.	4b\	-la
2.A\	non	.	.	4r	.	2e\	-la	2.cc\	non ſa-
.	.	.	.	4e\	Pur	.	.	.	.
=30-	=30-	=30-	=30-	=30-	=30-	=30-	=30-	=30-	=30-
.	.	2r	.	4f\	ch'el-	4A/	non	.	.
!	!	!	!	!	!	!	!	!LO:SIC:v:t=custos a	!
4G\	ſa-	.	.	4g\	-la	4B/	ſa-	4b\	-pen-
!	!	!	!	!	!	!	!	!LO:LB:g=original	!
4F\	-pen-	2.A/	non	2.a\	non	4c/	-pen-	4a\	-d' il
8F\	-d'il	.	.	.	.	8c/	-d'il	8a\	pia-
8E\	pia-	.	.	.	.	8c/	pia-	8g\	-cer
=31-	=31-	=31-	=31-	=31-	=31-	=31-	=31-	=31-	=31-
2D/	-cer	.	.	.	.	2d\	-cer	1f	ch'-
!	!	!LO:SIC:v:t=custos c	!	!	!	!	!	!	!
.	.	4d\	ſa-	4g\	-ſa-	.	.	.	.
!	!	!LO:LB:g=original	!	!	!	!	!	!	!
1F\	ch'-	4c\	-pen-	4f\	-pen-	4a\	nõ(n)	.	.
!	!	!	!	!	!	!LO:SIC:v:t=custos g	!	!	!
.	.	8c\	-d il	8f\	-d'il	4g\	ſa-	.	.
.	.	8B\	pia-	8e\	pia-	.	.	.	.
!	!	!	!	!	!	!LO:LB:g=original	!	!	!
=32-	=32-	=32-	=32-	=32-	=32-	=32-	=32-	=32-	=32-
.	.	2A/	-cer	4d\	-cer	4f\	-pen-	2a\	-io
.	.	.	.	2c/	ch'-	8f\	-d il	.	.
.	.	.	.	.	.	8e\	pia-	.	.
2G\	-io	2d\	ch'-	.	.	2d\	-cer	2g/	Del
.	.	.	.	4B/	-io	.	.	.	.
=33-	=33-	=33-	=33-	=33-	=33-	=33-	=33-	=33-	=33-
2C/	Del	1c	-io	1r	.	1e	ch'-	1.g	lã-
2D/	lã(n)-	.	.	.	.	.	.	.	.
=34-	=34-	=34-	=34-	=34-	=34-	=34-	=34-	=34-	=34-
0E	-guir	2B\	Del	2r	.	1e	-io	.	.
.	.	2A/	lan-	1e\	Del	.	.	2a\	-gu-
=35-	=35-	=35-	=35-	=35-	=35-	=35-	=35-	=35-	=35-
.	.	1G#X	-guir	.	.	2B/	Del	1b	-ir
.	.	.	.	2d\	lã(n)-	2B/	lan-	.	.
=36-	=36-	=36-	=36-	=36-	=36-	=36-	=36-	=36-	=36-
2AA/	m'hab-	2A/	m'hab-	2.c/	-guir	1e	-guir	1.cc	m'hab-
2AA/	-bia	2E/	-bia	.	.	.	.	.	.
.	.	.	.	4B/	.	.	.	.	.
=37-	=37-	=37-	=37-	=37-	=37-	=37-	=37-	=37-	=37-
1.D	o del	2F#X/	o del	2A/	m'hab-	2.d\	m'hab-	.	.
.	.	2Gny/	mo-	2G/	-bia	.	.	2b\	-bia o
.	.	.	.	.	.	4d\	-bia	.	.
=38-	=38-	=38-	=38-	=38-	=38-	=38-	=38-	=38-	=38-
!	!	!	!	!LO:SIC:v:t=custos G	!	!	!	!	!
.	.	2A/	-rir	2F#X/	o	2d\	o del	2a\	del
!	!	!	!	!LO:LB:g=original	!	!	!	!	!
2GG/	mo-	2B\	d'un	2.G/	del	2d\	mo-	2g/	mo-
=39-	=39-	=39-	=39-	=39-	=39-	=39-	=39-	=39-	=39-
!LO:SIC:v:t=custos AA	!	!	!	!	!	!	!	!	!
2C/	-rir	1c	o-	.	.	2e\	-rir	2g/	-rir
.	.	.	.	4E/	mo-	.	.	.	.
!LO:LB:g=original	!	!	!	!	!	!	!	!	!
2AA/	d'un	.	.	1E/	-rir	2e\	d'un	2a\	d'un
=40-	=40-	=40-	=40-	=40-	=40-	=40-	=40-	=40-	=40-
2GG#X/	ſo-	2B\	-lo	.	.	1e	-ſo-	2b\	ſo-
2AA/	-lo	4r	.	2e\	d'un	.	.	2cc\	-lo
!	!	!LO:SIC:v:t=custos G#	!	!	!	!	!	!	!
.	.	4A/	So-	.	.	.	.	.	.
!	!	!LO:LB:g=original	!	!	!	!	!	!	!
=41-	=41-	=41-	=41-	=41-	=41-	=41-	=41-	=41-	=41-
4r	.	2G#X/	-ſpir	2B/	ſo-	2e\	-lo	4r	.
4E\	So-	.	.	.	.	.	.	4b\	So-
2A\	-ſpir	4r	.	2c#X/	-lo	4r	.	2a\	-ſpir
*	*	*	*ij	*	*	*	*	*	*
.	.	4A/	So-	.	.	4e\	So-	.	.
=42-	=42-	=42-	=42-	=42-	=42-	=42-	=42-	=42-	=42-
!	!	!	!	!	!	!LO:SIC:v:t=custos g	!	!	!
4r	.	2d\	-ſpir	4r	.	2f#X\	-ſpir	4r	.
!	!	!	!	!	!	!	!	!LO:SIC:v:t=custos b	!
*	*ij	*	*	*	*	*	*ij	*	*ij
4D/	So-	.	.	4d\	So-	.	.	4a\	So-
!	!	!	!	!	!	!LO:LB:g=original	!	!LO:LB:g=original	!
2G\	-ſpir	4r	.	2d\	-ſpir	4r	.	2b\	ſpir
.	.	4Gny/	So-	.	.	4g\	So-	.	.
*	*Xij	*	*	*	*	*	*	*	*Xij
=43-	=43-	=43-	=43-	=43-	=43-	=43-	=43-	=43-	=43-
4r	.	1c	-ſpir	4r	.	2g\	-ſpir	4r	.
4C/	So-	.	.	4e\	So-	.	.	4cc\	So-
4F\	ſpir	.	.	4A/	-ſpir	4r	.	4cc\	ſpir
*	*	*	*Xij	*	*	*	*Xij	*	*
4E\	mi	.	.	2cny/	mi	4e\	mi	4cc\	mi
=44-	=44-	=44-	=44-	=44-	=44-	=44-	=44-	=44-	=44-
1D	de-	1r	.	.	.	1fny	deg-	1dd	de-
.	.	.	.	8B/	.	.	.	.	.
.	.	.	.	8A/	.	.	.	.	.
.	.	.	.	2B/	deg-	.	.	.	.
=45-	=45-	=45-	=45-	=45-	=45-	=45-	=45-	=45-	=45-
1C	-gni	4r	.	4c/	-ni	4e\	-ni	2ee\	-gni
.	.	4G/	So-	8B/	.	4e\	So-	.	.
.	.	.	.	8A/	.	.	.	.	.
.	.	4c\	-ſpir	2G/	.	4e\	-ſpir	4r	.
.	.	4B\	mi	.	.	4d\	mi	4g/	So-
=46-	=46-	=46-	=46-	=46-	=46-	=46-	=46-	=46-	=46-
0r	.	1A	de-	4r	.	1c	de-	4a\	-ſpir
!	!	!	!	!LO:SIC:v:t=custos e	!	!	!	!	!
.	.	.	.	4e\	Se-	.	.	4b\	m
!	!	!	!	!LO:LB:g=original	!	!	!	!	!
.	.	.	.	4e\	-ſpir	.	.	2.cc\	de-
.	.	.	.	4f#X\	mi	.	.	.	.
=47-	=47-	=47-	=47-	=47-	=47-	=47-	=47-	=47-	=47-
.	.	2.G/	-gni	4g\	de-	0d	-gni	.	.
.	.	.	.	4d\	.	.	.	4b\	.
.	.	.	.	2.g\	.	.	.	4b\	.
.	.	8Fny/	.	.	.	.	.	8a\	.
.	.	8E/	.	.	.	.	.	8g\	.
=48-	=48-	=48-	=48-	=48-	=48-	=48-	=48-	=48-	=48-
2r	.	1D	.	.	.	.	.	1a	.
.	.	.	.	8f#X\	.	.	.	.	.
.	.	.	.	8e\	.	.	.	.	.
2D/	Pur	.	.	2f#X\	.	.	.	.	.
=49-	=49-	=49-	=49-	=49-	=49-	=49-	=49-	=49-	=49-
4E\	ch'el	2r	.	4g\	-gni	2r	.	0g	-gni
4F\	la	.	.	8fny\	.	.	.	.	.
.	.	.	.	8e\	.	.	.	.	.
2.G\	non	4r	.	4.d\	.	2d\	Pur	.	.
.	.	4B\	Pur	.	.	.	.	.	.
.	.	.	.	8c/	.	.	.	.	.
=50-	=50-	=50-	=50-	=50-	=50-	=50-	=50-	=50-	=50-
.	.	4G/	ch'el-	1B	.	4e\	ch'el-	.	.
!LO:SIC:v:t=custos E	!	!	!	!	!	!	!	!	!
4F\	ſa-	4A/	-la	.	.	4f\	-la	.	.
!LO:LB:g=original	!	!	!	!	!	!	!	!	!
4E\	-pen-	2B\	non	.	.	2.g\	non	.	.
8E\	-d'il	.	.	.	.	.	.	.	.
8D/	pia-	.	.	.	.	.	.	.	.
=51-	=51-	=51-	=51-	=51-	=51-	=51-	=51-	=51-	=51-
!	!	!LO:SIC:v:t=custos c	!	!	!	!	!	!	!
2C/	-cer	2e\	ſa-	2r	.	.	ſa-	2r	.
.	.	.	.	.	.	4f\	-pen-	.	.
!	!	!LO:LB:g=original	!	!	!	!	!	!	!
*	*ij	*	*	*	*	*	*	*	*
2E\	Pur	4c\	-pen-	4r	.	4e\	-d(o)	2g/	Pur
.	.	8c\	-d'il	4g\	Pur	8e\	il	.	.
!	!	!	!	!	!	!LO:SIC:v:t=custos c	!	!	!
.	.	8B\	pia-	.	.	8d\	pia.-	.	.
!	!	!	!	!	!	!LO:LB:g=original	!	!	!
=52-	=52-	=52-	=52-	=52-	=52-	=52-	=52-	=52-	=52-
4F\	ch'el-	1A	-cer	2f\	ch'el-	2c/	-cer	4a\	ch'e-
!	!	!	!	!	!	!	!	!LO:SIC:v:t=custos cc	!
4G\	-la	.	.	.	.	.	.	4b\	-lla
!	!	!	!	!	!	!	!	!LO:LB:g=original	!
2.A\	non	.	.	2e\	-la	4r	.	2.cc\	non
.	.	.	.	.	.	4e\	Pur	.	.
=53-	=53-	=53-	=53-	=53-	=53-	=53-	=53-	=53-	=53-
.	.	2r	.	4A/	non	4f\	ch'el-	.	.
!	!	!	!	!LO:SIC:v:t=custos c	!	!	!	!	!
4G\	ſa-	.	.	4B/	ſa-	4g\	-la	4b\	ſa-
!	!	!	!	!LO:LB:g=original	!	!	!	!	!
4F\	-pen-	2.A/	non	4c/	-pen-	2.a\	non	4a\	-pen-
8F\	-d'il	.	.	8c/	-d'il	.	.	8a\	-d'il
8E\	pia-	.	.	8c/	pia-	.	.	8g\	pia-
=54-	=54-	=54-	=54-	=54-	=54-	=54-	=54-	=54-	=54-
2D/	-cer	.	.	2d\	-cer	.	.	1f	-cer
.	.	4d\	ſa-	.	.	4g\	ſa-	.	.
*	*Xij	*	*	*	*	*	*	*	*
1F\	ch'-	4c\	-pan-	4a\	non	4f\	-pen-	.	.
.	.	8c\	-d'il	4g\	ſa-	8f\	-d'il	.	.
.	.	8B\	pia-	.	.	8e\	pia-	.	.
=55-	=55-	=55-	=55-	=55-	=55-	=55-	=55-	=55-	=55-
.	.	2A/	-cer	4f\	-pen-	4d\	-cer	2a\	ch'-
.	.	.	.	8f\	-d'il	2c/	ch'-	.	.
.	.	.	.	8e\	pia-	.	.	.	.
2G\	-io	2d\	ch'-	2d\	-cer	.	.	2g/	-io
.	.	.	.	.	.	4B/	-io	.	.
=56-	=56-	=56-	=56-	=56-	=56-	=56-	=56-	=56-	=56-
2C/	Del	1c	-io	1e	ch'-	1r	.	1.g	Del
2D/	la(n)-	.	.	.	.	.	.	.	.
=57-	=57-	=57-	=57-	=57-	=57-	=57-	=57-	=57-	=57-
0E	-guir	2B\	Del	1e	-io	2r	.	.	.
.	.	2A/	lan-	.	.	1e\	Del	2a\	lan-
=58-	=58-	=58-	=58-	=58-	=58-	=58-	=58-	=58-	=58-
.	.	1G#X	-guir	2B/	Del	.	.	1b	-guir
.	.	.	.	2B/	la-	2d\	lan-	.	.
=59-	=59-	=59-	=59-	=59-	=59-	=59-	=59-	=59-	=59-
2AA/	m'hab-	2A/	m'hab-	1e	-guir	2.c/	-gu-	1.cc	m'hab-
2AA/	-bia	2E/	-bia	.	.	.	.	.	.
.	.	.	.	.	.	4B/	-ir	.	.
=60-	=60-	=60-	=60-	=60-	=60-	=60-	=60-	=60-	=60-
1.D	o del	2F#X/	o del	2.d\	m'hab-	2A/	.	.	.
!	!	!	!	!	!	!LO:SIC:v:t=custos F#	!	!	!
.	.	2Gny/	mo-	.	.	2G/	m'hab-	2b\	-bia
.	.	.	.	4d\	-bia	.	.	.	.
!	!	!	!	!	!	!LO:LB:g=original	!	!	!
=61-	=61-	=61-	=61-	=61-	=61-	=61-	=61-	=61-	=61-
!	!	!LO:SIC:v:t=custos B	!	!	!	!	!	!	!
.	.	2A/	-rir	2d\	o del	2F#X/	-bia	2a\	o del
!LO:SIC:v:t=custos C	!	!LO:LB:g=original	!	!	!	!	!	!	!
2GGny/	mo-	2B\	d'un	2d\	mo-	2.G/	o del	2g/	mo-
!LO:LB:g=original	!	!	!	!	!	!	!	!	!
=62-	=62-	=62-	=62-	=62-	=62-	=62-	=62-	=62-	=62-
!	!	!	!	!LO:SIC:v:t=custos e	!	!	!	!	!
2C/	-rir	1c	ſo-	2e\	-rir	.	.	2g/	-rir
.	.	.	.	.	.	4E/	mo-	.	.
!	!	!	!	!LO:LB:g=original	!	!	!	!	!
2AA/	d'un	.	.	2e\	d'un	1E/	-rir	2a\	d'un
=63-	=63-	=63-	=63-	=63-	=63-	=63-	=63-	=63-	=63-
2GG#X/	ſo-	2B\	-lo	1e	ſo-	.	.	2b\	ſo-
!	!	!	!	!	!	!	!	!LO:SIC:v:t=custos b	!
2AA/	-li	4r	.	.	.	2e\	d'un	2cc\	-lo
.	.	4A/	So-	.	.	.	.	.	.
!	!	!	!	!	!	!	!	!LO:LB:g=original	!
=64-	=64-	=64-	=64-	=64-	=64-	=64-	=64-	=64-	=64-
4r	.	2G#X/	-ſpir	2e\	-le	2B/	ſo-	4r	.
4E\	So-	.	.	.	.	.	.	4b\	So-
2A\	-ſpir	4r	.	4r	.	2c#X/	-lo	2a\	-ſpir
*	*	*	*ij	*	*	*	*	*	*
.	.	4A/	So-	4e\	So-	.	.	.	.
=65-	=65-	=65-	=65-	=65-	=65-	=65-	=65-	=65-	=65-
4r	.	2d\	-ſpir	2f#X\	-ſpir	4r	.	4r	.
*	*ij	*	*	*	*ij	*	*	*	*ij
4D\	So-	.	.	.	.	4d\	So-	4a\	So-
2G\	-ſpir	4r	.	4r	.	2d\	-ſpir	2b\	-ſpir
.	.	4Gny/	So-	4g\	So-	.	.	.	.
*	*Xij	*	*	*	*	*	*	*	*Xij
=66-	=66-	=66-	=66-	=66-	=66-	=66-	=66-	=66-	=66-
4r	.	1c	ſpir	2g\	-ſpir	4r	.	4r	.
4C/	So-	.	.	.	.	4e\	So-	4cc\	So-
4F\	-ſpir	.	.	4r	.	4A/	-ſpir	4cc\	-ſpir
*	*	*	*Xij	*	*Xij	*	*	*	*
4E\	mi	.	.	4e\	mi	2cny/	mi	4cc\	mi
=67-	=67-	=67-	=67-	=67-	=67-	=67-	=67-	=67-	=67-
1D	de-	1r	.	1fny	de-	.	.	1dd	de-
.	.	.	.	.	.	8B/	.	.	.
.	.	.	.	.	.	8A/	.	.	.
.	.	.	.	.	.	2B/	de-	.	.
=68-	=68-	=68-	=68-	=68-	=68-	=68-	=68-	=68-	=68-
1C	-gni	2r	.	1e	-gni	2c/	-gni	1ee	-gni
.	.	2G/	o	.	.	4r	.	.	.
!	!	!	!	!	!	!LO:SIC:v:t=custos B	!	!	!
.	.	.	.	.	.	4c/	o	.	.
!	!	!	!	!	!	!LO:LB:g=original	!	!	!
=69-	=69-	=69-	=69-	=69-	=69-	=69-	=69-	=69-	=69-
1.E	o dal-	1.G#X	d'al-	1.e	o dal-	1.B	d'al-	2r	.
.	.	.	.	.	.	.	.	2b\	o
=70-	=70-	=70-	=70-	=70-	=70-	=70-	=70-	=70-	=70-
.	.	.	.	.	.	.	.	2b\	d'al-
2E\	-tro	2G#yX/	-tro	2e\	-tro	2B/	-tro	2b\	-tro
=71-	=71-	=71-	=71-	=71-	=71-	=71-	=71-	=71-	=71-
1BBny	effe-	1B	effe-	1f#X	effe-	1d#X	affe-	1b	efeet-
=72-	=72-	=72-	=72-	=72-	=72-	=72-	=72-	=72-	=72-
1E	-tto	1B	-tto	1g#X	-tto	1e	-tto	1b	-to
=73-	=73-	=73-	=73-	=73-	=73-	=73-	=73-	=73-	=73-
0AA	pi-	0A	pio.	2.a\	pi-	2.e\	pi-	2.cc\	pi-
.	.	.	.	8gny\	.	4dny\	.	4b\	.
.	.	.	.	8fny\	.	.	.	.	.
=74-	=74-	=74-	=74-	=74-	=74-	=74-	=74-	=74-	=74-
.	.	.	.	1e	.	1c	.	1a	.
=75-	=75-	=75-	=75-	=75-	=75-	=75-	=75-	=75-	=75-
00E	-o.	00G#X	.	00e	o.	00B	-o.	00b	-o.
==	==	==	==	==	==	==	==	==	==
*-	*-	*-	*-	*-	*-	*-	*-	*-	*-
!!!system-decoration: [(s1,s2,s3,s4,s5)]
!!!ENC: Marta Opryszak
!!!END: 2022-06-10
!!!ENC: Natalia Wrzos
!!!END: 2022-07-19
